X: 367
T:Coffey's Reel
M:C|
N:COFFEY'S REEL. Irish, Reel. A Dorian. Green Linnet GLCD 1184, Patrick
N:Street - "Made in Cork" (1997).
R:reel
Z:Bud Burroughs
Z:Posted to list by Lesl Harker
K:ADor
A3B AGED|G2Bd edBd|eaaf gedB|AcBG AGEG|
A3B AGED|G2Bd edBd|eaaf gedB|1 AcBG A2cB:|2 AcBG A2eg|
a3b ageg|gedB GABd|(3efg fa gedB|AcBG AGED|
a3b ageg|gedB GABd|(3efg fa gedg|gedB A2eg|
a3b ageg|gedB GABd|(3efg fa gedB|AcBG AGED|
A3B AGED|G2Bd edBd|eaaf gedB| AcBG A2cB|
<end>
<start>
